X:52
T: JETZT DANZT HANNEMANN
N: E1050
O: Europa, Mitteleuropa, Deutschland, Mark
R: Tanz - Lied
M: 2/4
L: 1/16
K: C
 | C4E4 | G3GG4 |
e4c4 | G3GG4 |
C4E4 | G3GG4 |
G4F2E2 | F2D2C4 |
c4B2A2 | A2G2G2
E2 | G2F2F2D2 | F2E2E2z2 |
c4B2A2 | A2G2G2
E2 | G2F2F2D2 | C4z4

@@@ Tune index: 4736
